X:10018
T:Just as the Tide Was Flowing
R:Reel
C:Trad.
O:England
Z:Paul Hardy's Session Tunebook 2015 (see www.paulhardy.net). Creative Commons cc by-nc-sa licenced.
M:4/4
L:1/8
Q:1/4=140
K:G
BA|"G"G2 E2 "C"E3 D|"G"G2 G2 "D"A2 GA|"G"Bcd2 B2 AG|"D"E2 F2 "G"G2 BA|"G"G2 E2 "C"E3 D|"G"G2 G2 "D"A2 GA|"G"BABd "Am"cBAG|"D"E2 F2 "G"G2:|
|:Bc|"G"d2 d2 d2 Bc|d2 d2 e2 Bc|d2 B2 BAGA|"D"BAGF E2 D2|"G"G2 G2 "C"E3 D|"G"G2 G2 "D"A2 GA|"G"BABd "Am"cBAG|"D7"E2 F2 "G"G2:|

